src/img/logo-light-theme.svg

<svg width="24" height="24" viewBox="0 0 24 24" fill="none" xmlns="http://www.w3.org/2000/svg">
<g clip-path="url(#clip0_4313_342)">
<path d="M0 0L12.2571 12.1286L24 24V0H0Z" fill="#F6F6F6"/>
<path d="M3.34277 3.17145L12.2999 12.0429L20.7428 20.6572H3.34277V3.17145Z" fill="#F6F6F6"/>
<path d="M20.7997 20.7137L11.8425 11.8423L3.39966 3.22797H20.7997V20.7137Z" fill="#4F2EE8"/>
<path d="M6.94287 6.77142L11.7 11.5286L17.1429 16.9714H6.94287V6.77142Z" fill="#4F2EE8"/>
<path d="M6.94287 6.77142L11.7 11.5286L17.1429 16.9714V6.77142H6.94287Z" fill="#F6F6F6"/>
</g>
<defs>
<clipPath id="clip0_4313_342">
<rect width="24" height="24" fill="white"/>
</clipPath>
</defs>
</svg>

<svg xmlns="http://www.w3.org/2000/svg" fill="none" viewBox="0 0 24 24"><g clip-path="url(#a)"><path fill="#F6F6F6" d="m0 0 12.257 12.129L24 24V0H0Z"/><path fill="#F6F6F6" d="m3.343 3.171 8.957 8.872 8.443 8.614h-17.4V3.171Z"/><path fill="#4F2EE8" d="m20.8 20.714-8.958-8.872L3.4 3.228h17.4v17.486Z"/><path fill="#4F2EE8" d="M6.943 6.771 11.7 11.53l5.443 5.442h-10.2v-10.2Z"/><path fill="#F6F6F6" d="M6.943 6.771 11.7 11.53l5.443 5.442v-10.2h-10.2Z"/></g><defs><clipPath id="a"><path fill="#fff" d="M0 0h24v24H0z"/></clipPath></defs></svg>
